Adwaita++/actions/22/format-join-node.svg

<svg xmlns="http://www.w3.org/2000/svg" width="22" height="22" viewBox="0 0 22 22">
 <defs>
  <style id="current-color-scheme" type="text/css">
   .ColorScheme-Text { color:#444444; } .ColorScheme-Highlight { color:#4285f4; }
  </style>
 </defs>
 <path style="fill:currentColor" class="ColorScheme-Text" d="M 1 1.0039062 L 1 6.0039062 L 6 6.0039062 L 6 4.0039062 L 7 4.0039062 L 7 3.0039062 L 6 3.0039062 L 6 1.0039062 L 1 1.0039062 z M 10 1.0039062 L 10 3.0039062 L 9 3.0039062 L 9 4.0039062 L 10 4.0039062 L 10 6.0039062 L 15 6.0039062 L 15 1.0039062 L 10 1.0039062 z M 6 7.0039062 L 8 10.003906 L 10 7.0039062 L 6 7.0039062 z M 1 10.003906 L 1 15.003906 L 6 15.003906 L 6 13.003906 L 10 13.003906 L 10 15.003906 L 15 15.003906 L 15 10.003906 L 10 10.003906 L 10 12.003906 L 6 12.003906 L 6 10.003906 L 1 10.003906 z" transform="translate(3 3)"/>
</svg>

<svg height="22" viewBox="0 0 22 22" width="22" xmlns="http://www.w3.org/2000/svg">
  <path d="m1 1.0039062v5h5v-2h1v-1h-1v-2zm9 0v2h-1v1h1v2h5v-5zm-4 6 2 2.9999998 2-2.9999998zm-5 2.9999998v5h5v-2h4v2h5v-5h-5v2h-4v-2z" fill="#444" transform="translate(3 3)"/>
</svg>
